X:1
T:Title
%%score { ( 1 3 ) | ( 2 4 ) }
L:1/8
M:4/4
K:C
V:1 treble nm="Grand Piano"
V:3 treble 
V:2 bass 
V:4 bass 
V:1
 z4 z2[Q:1/4=96] [EG]>[EG] | [Ec]2 [Ec]>[Ec] [Ec]2 [EG]>[EG] | [FA]>[EG] [EG]2 E2 C>D | %3
 [CE]2 [CG]>[CG] [Ec]2 [Ec]>[Ge] |[M:9/8] [^Fe]>[Fd][Fd]- [Fd] d2- dG>G | %5
[M:4/4] [Ec]2 [Ec]>[Ec] [Ec]2 [EG]>[EG] |[M:9/8] [FA]>[FA][CFc]- [CFc] [Ec]2- [Ec]c>c | %7
[M:4/4] e6 z2 |[M:7/8] c-c-c- c- c3 |[M:1/4] [Ec]>[Ec] |[M:4/4] e6 z2 | e4 z4 | c6 z2 | c6 z2 | %14
 [Gc]2 [Ec]>[Ge] [^Fe]>[Fd] [Fd]2 | d6 d>d | [Ge]>[Ge] [Ge]>[Fd] [Ec]2 [Ec]>[Gc] | %17
 [FA]>[GB] [Ac]>A G2 c>c | e6 z2 |[M:7/8] c-c-c- c- c3 |] %20
V:2
 z4 z2 [C,C]>[C,C] | [C,G,]2 [C,G,]>[C,G,] [C,G,]2 [C,C]>[C,C] | %2
 [C,C]>[C,C] [C,C]2 [C,G,C]2 [C,E,]>[C,F,C] | [A,,G,]2 [E,G,]>[E,G,] [C,G,]2 [C,G,]>[C,C] | %4
[M:9/8] [D,A,]>[D,A,][D,C]- [D,C] [G,,G,B,G]2- [G,,G,B,G][K:treble][G,B,F]>[G,B,F] | %5
[M:4/4][K:bass] [C,C]2 [C,G,]>[C,G,] [C,F,]2 [C,C]>[C,C] | %6
[M:9/8] [F,C]>[F,C][A,,A,]- [A,,A,] [C,C]2- [C,C][K:treble][A,CE]>[A,CE] | %7
[M:4/4] [G,CA]2 G,>G,[K:bass] [G,C]2 [G,,G,]>[G,,G,] |[M:7/8] G, z z z z z2 | %9
[M:1/4] [C,G,]>[C,G,] |[M:4/4] [C,C]2 A,,>A,, C,2 [C,G,]>[C,G,] | [C,C]>[E,C] [G,C]2 C,2 C,>C, | %12
 [A,EA]>[A,E][K:bass] [A,C]2 [F,C]2 [F,CF]>[F,A,F] | [C,G,]>[E,G,E] G,2 [C,G,]2 [C,C]>[C,C] | %14
 [E,C]2 [C,G,]>[C,C] [D,A,]>[D,A,] [D,C]2 | [G,,G,B,G]6[K:treble] [G,B,G]>[G,B,G] | %16
 [C,C]>[C,C] [C,C]>[B,,C] [C,A,]2 [C,G,]>[E,C] | %17
 [F,C]>[F,C] [F,C]>[K:treble][F,CF] [CE]2 [A,CE]>[A,CE] | %18
 [G,CG]2[K:bass] G,>G, [G,C]2 [G,,G,]>[G,,G,] |[M:7/8] G, z z z z z2 |] %20
V:3
 x8 | x8 | x8 | x8 |[M:9/8] x9 |[M:4/4] x8 |[M:9/8] x9 |[M:4/4] z2 c>c G2 [Fd]>[Fd] | %8
[M:7/8] E_E F2 =E3 |[M:1/4] x2 |[M:4/4] G2 [CA]>[CA] [CG]2 [Ec]>[Ec] | G>G c2 [EGc]2 [EGc]>[EGc] | %12
 z z/ A/ A2 A2 A>c | E>G E2 E2 [EG]>[EG] | x8 | x8 | x8 | x8 | z2 c>c G2 [Fd]>[Fd] | %19
[M:7/8] E_E F2 =E3 |] %20
V:4
 x8 | x8 | x8 | x8 |[M:9/8] x7[K:treble] x2 |[M:4/4][K:bass] x8 |[M:9/8] x7[K:treble] x2 | %7
[M:4/4] x4[K:bass] x4 |[M:7/8] C,-[C,-^F,] [C,-A,]2 [C,G,]3 |[M:1/4] x2 |[M:4/4] x8 | x8 | %12
 x2[K:bass] x6 | x8 | x8 | x6[K:treble] x2 | x8 | x7/2[K:treble] x9/2 | x2[K:bass] x6 | %19
[M:7/8] C,-[C,-^F,] [C,-A,]2 [C,G,]3 |] %20

